Hatter-kde/actions/24/user-group-properties.svg

<?xml version="1.0" encoding="UTF-8"?>
<svg viewBox="0 0 24 24" xmlns="http://www.w3.org/2000/svg">
 <defs id="defs3051">
  <style id="current-color-scheme" type="text/css">.ColorScheme-Text {
        color:#363636;
      }</style>
 </defs>
 <path class="ColorScheme-Text" d="m11 4v1h9v-1h-9zm-2 3c-1.662 0-3 1.338-3 3s1.338 3 3 3 3-1.338 3-3-1.338-3-3-3zm4 2v1h7v-1h-7zm-4 5c-2.77 0-5 2.23-5 5v1h10v-1c0-2.77-2.23-5-5-5zm5 0v1h6v-1h-6zm-5 1c2.216 0 4 1.784 4 4h-8c0-2.216 1.784-4 4-4z" fill="currentColor"/>
</svg>

<svg xmlns="http://www.w3.org/2000/svg" viewBox="0 0 24 24">
  <defs id="defs3051">
    <style type="text/css" id="current-color-scheme">
      .ColorScheme-Text {
        color:#363636;
      }
      </style>
  </defs>
 <path style="fill:currentColor;fill-opacity:1;stroke:none" 
     d="M 11 4 L 11 5 L 20 5 L 20 4 L 11 4 z M 9 7 C 7.338 7 6 8.338 6 10 C 6 11.662 7.338 13 9 13 C 10.662 13 12 11.662 12 10 C 12 8.338 10.662 7 9 7 z M 13 9 L 13 10 L 20 10 L 20 9 L 13 9 z M 9 14 C 6.229983 14 4 16.229983 4 19 L 4 20 L 14 20 L 14 19 C 14 16.229983 11.770017 14 9 14 z M 14 14 L 14 15 L 20 15 L 20 14 L 14 14 z M 9 15 C 11.216017 15 13 16.783983 13 19 L 5 19 C 5 16.783983 6.783983 15 9 15 z "
     class="ColorScheme-Text"
     />
</svg>
